public/tools/docker.svg

<svg xmlns="http://www.w3.org/2000/svg" width="512" height="131" preserveAspectRatio="xMidYMid"><path fill="#2396ED" d="m140.598 25.715 3.892 2.818c6.77 5.46 10.662 11.625 11.508 18.67 7.277-1.409 16.584-.352 20.646 2.466l3.723 2.29-.677 1.41c-1.185 2.641-1.523 3.346-1.692 3.698-6.6 13.21-19.631 13.386-25.723 13.21-15.4 38.573-48.23 59.885-92.57 59.885-20.476 0-36.045-6.517-46.538-19.375C-.709 93.88-.709 71.862.475 64.817l.339-1.41h122.353c6.43 0 11.339-1.76 13.708-3.17-2.539-3.875-3.385-8.278-3.554-10.744-.508-7.045 1.185-14.443 4.57-19.727zm106.014 8.179q2.048 0 3.468 1.373t1.42 3.467v43.563q0 10.89-7.634 18.43-7.726 7.633-18.43 7.633-10.798 0-18.43-7.633-7.633-7.633-7.633-18.43t7.633-18.43q7.632-7.634 18.43-7.633 9.262 0 16.336 5.724V38.734q0-2.094 1.373-3.467t3.467-1.373m36.49 22.34q10.705 0 18.43 7.632 3.818 3.818 5.702 8.424 1.885 4.608 1.932 10.007 0 10.89-7.633 18.43-7.725 7.633-18.43 7.633-10.798 0-18.43-7.633-7.634-7.633-7.634-18.43t7.633-18.43q7.633-7.634 18.43-7.633m57.574 0q9.82 0 16.988 6.33 1.675 1.488 1.675 3.676 0 2.095-1.373 3.49-1.373 1.397-3.467 1.397a4.93 4.93 0 0 1-3.165-1.117q-2.373-2.002-4.98-3.025t-5.678-1.024q-3.397 0-6.376 1.28a16.7 16.7 0 0 0-5.213 3.49 16.2 16.2 0 0 0-3.514 5.19q-1.28 2.977-1.28 6.376 0 3.397 1.28 6.376a16.2 16.2 0 0 0 3.514 5.19 16.7 16.7 0 0 0 5.213 3.49q2.979 1.28 6.376 1.28 3.072 0 5.678-1 2.607-1.002 4.933-3.003 1.304-.977 3.072-1.024 2.094 0 3.467 1.373t1.373 3.468q0 2.048-1.535 3.583-7.214 6.33-16.988 6.33-10.798 0-18.43-7.633-7.633-7.633-7.633-18.43t7.633-18.43q7.632-7.634 18.43-7.633m29.044-22.34q2.001 0 3.42 1.42 1.42 1.418 1.42 3.467v36.302l27.832-18.105q1.163-.744 2.606-.744 1.024 0 1.908.372.885.372 1.536 1.047t1.047 1.56.396 1.86q0 2.607-1.862 3.864l-19.5 12.66 20.012 22.525q1.35 1.489 1.35 3.398 0 .977-.396 1.861a5.4 5.4 0 0 1-1.047 1.56q-.651.675-1.536 1.046a4.9 4.9 0 0 1-1.908.373q-1.955 0-3.258-1.257l-21.502-24.155-5.678 3.724v16.801q0 2.001-1.42 3.444t-3.42 1.443q-2.048 0-3.468-1.443t-1.42-3.444V38.781q0-2.048 1.42-3.468t3.468-1.42m71.489 22.34q10.704 0 18.43 7.632 3.816 3.77 5.725 8.401 1.908 4.63 1.908 10.03 0 2.094-1.42 3.467t-3.467 1.373h-36.86a15.9 15.9 0 0 0 2.327 4.677 16.3 16.3 0 0 0 3.606 3.63 16.7 16.7 0 0 0 4.562 2.351q2.49.838 5.189.838 3.072 0 5.631-.931 2.56-.93 4.748-2.793a5.1 5.1 0 0 1 3.21-1.21q2.095 0 3.468 1.373t1.373 3.468q0 2.047-1.396 3.49-7.214 6.33-17.034 6.33-10.798 0-18.43-7.633-7.633-7.633-7.633-18.43t7.633-18.43q7.632-7.634 18.43-7.633m57.48 0q2.048 0 4.398.279 2.35.28 4.329 1 1.978.721 3.28 1.978 1.305 1.257 1.304 3.258 0 1.025-.396 1.909a5.4 5.4 0 0 1-1.047 1.559q-.651.675-1.536 1.047a4.9 4.9 0 0 1-1.908.372q-.885 0-2.048-.512-2.932-1.163-6.376-1.163-3.397 0-6.376 1.28-2.978 1.28-5.19 3.49-2.21 2.211-3.49 5.19-1.28 2.977-1.28 6.376v21.223q0 2.001-1.42 3.42t-3.42 1.42q-2.048 0-3.467-1.42t-1.42-3.42V61.074q0-2.002 1.42-3.42 1.42-1.42 3.467-1.42 2.001 0 3.42 1.42 1.42 1.418 1.42 3.42v.93a26.7 26.7 0 0 1 7.586-4.281q4.095-1.49 8.75-1.49M225.436 65.96q-3.444 0-6.423 1.303t-5.166 3.514-3.467 5.19-1.28 6.329 1.28 6.33 3.467 5.189 5.166 3.514q2.979 1.302 6.423 1.303 3.397 0 6.376-1.303a16.6 16.6 0 0 0 5.19-3.538 16.8 16.8 0 0 0 3.49-5.189q1.28-2.955 1.28-6.306t-1.28-6.307a16.8 16.8 0 0 0-3.49-5.189 16.6 16.6 0 0 0-5.19-3.537q-2.978-1.303-6.376-1.303m57.667 0q-3.444 0-6.423 1.303t-5.166 3.514-3.468 5.19-1.28 6.329 1.28 6.33q1.281 2.978 3.468 5.189t5.166 3.514 6.423 1.303q3.397 0 6.376-1.303a16.6 16.6 0 0 0 5.19-3.538 16.8 16.8 0 0 0 3.49-5.189q1.28-2.955 1.28-6.306t-1.28-6.307a16.8 16.8 0 0 0-3.49-5.189 16.6 16.6 0 0 0-5.19-3.537q-2.979-1.303-6.376-1.303m158.106 0q-2.653 0-5.166.837a17 17 0 0 0-4.608 2.35 16.1 16.1 0 0 0-3.63 3.631 15.1 15.1 0 0 0-2.28 4.677h31.368a15.6 15.6 0 0 0-2.35-4.677 16.8 16.8 0 0 0-3.63-3.63 16.7 16.7 0 0 0-4.561-2.35 16 16 0 0 0-5.143-.838M32.629 42.27v17.614H14.014V42.272zm22 0v17.614H36.014V42.272zm22 0v17.614H58.013V42.272zm22 0v17.614H80.013V42.272zm22 0v17.614h-18.616V42.272zm-22-21.135v17.613H80.013V21.136zm-22 0v17.613H58.013V21.136zm-22 0v17.613H36.014V21.136zM98.629 0v17.613H80.013V0z"/></svg>

<?xml version="1.0" encoding="UTF-8"?>
<svg id="Layer_1" xmlns="http://www.w3.org/2000/svg" version="1.1" viewBox="0 0 180.37 130.16">
  <!-- Generator: Adobe Illustrator 30.1.0, SVG Export Plug-In . SVG Version: 2.1.1 Build 136)  -->
  <defs>
    <style>
      .st0 {
        fill: #2396ed;
      }
    </style>
  </defs>
  <path class="st0" d="M140.6,25.72l3.89,2.82c6.77,5.46,10.66,11.62,11.51,18.67,7.28-1.41,16.58-.35,20.65,2.47l3.72,2.29-.68,1.41c-1.18,2.64-1.52,3.35-1.69,3.7-6.6,13.21-19.63,13.39-25.72,13.21-15.4,38.57-48.23,59.89-92.57,59.89-20.48,0-36.04-6.52-46.54-19.38C-.71,93.88-.71,71.86.47,64.82l.34-1.41h122.35c6.43,0,11.34-1.76,13.71-3.17-2.54-3.88-3.38-8.28-3.55-10.74-.51-7.05,1.18-14.44,4.57-19.73l2.71-4.05ZM32.63,42.27v17.61H14.01v-17.61h18.62ZM54.63,42.27v17.61h-18.62v-17.61h18.62ZM76.63,42.27v17.61h-18.62v-17.61h18.62ZM98.63,42.27v17.61h-18.62v-17.61h18.62ZM120.63,42.27v17.61h-18.62v-17.61h18.62ZM98.63,21.14v17.61h-18.62v-17.61h18.62ZM76.63,21.14v17.61h-18.62v-17.61h18.62ZM54.63,21.14v17.61h-18.61v-17.61h18.61ZM98.63,0v17.61h-18.62V0h18.62Z"/>
</svg>
